X:16
T:Denis Murphy's
Z: id:dc-polka-13
M:2/4
L:1/8
K:A Major
ef/e/ ce|Ae ce|f/g/a/f/ ec|BA F2|!
ef/e/ ce|Ae ce|f/g/a/f/ ec|BA A2:|!
ce fa/f/|ec BA|ce fa/f/|ec B2|!
ce fa/f/|ec BA|ef/e/ cB|BA A2:|!

